X:1
T:The Touch of His Tender Hand
T:The Touch of His Tender Hand
T:Andrew Linnaeus Byers
T:Clara McAlister Brooks, 1918
T:Public Domain Courtesy of the Cyber Hymnal™
T:Public Domain Courtesy of the Cyber Hymnal™
C:Andrew Linnaeus Byers
Z:Public Domain
Z:Courtesy of the Cyber Hymnal™
%%score ( 1 2 ) ( 3 4 )
L:1/8
Q:1/4=95
M:4/4
K:A
V:1 treble 
V:2 treble 
V:3 bass 
V:4 bass 
V:1
 ([CE]>[CE]) | [CE]2 [A,C]>[B,D] [CE]2 [Ec]>[EB] | ([FA][^EG]) [FA]>[DF] [C=E]2 [CE]2 | %3
w: 1.~Far~a- *|way in a land that is|dar- * ker than night, Deep|
w: 2.~Un- *|loved and un- cher- ished, they|sink * in- to woe, For|
w: 3.~The *|Day- star is shed- ding His|beau- * ti- ful ray, That|
w: 4.~The *|hand that brought life to the|lone * wi- dow’s son, And|
 [B,E]2 [G,B,]>[A,C] [B,D]2 [DF]>[CE] | [A,C]6 ([CE][CE]) | [Ec]2 [Ec]>[DB] [CA]2 [CA]>[CE] | %6
w: sha- dows o’er- spread- ing the|sky, In~the *|isles of the sea for a|
w: com- fort your hands could bes-|tow; O *|Sav- ior, Thy heart must be|
w: each may be warmed and be|blest; Yet *|mil- lions now per- ish from|
w: heal- ing in dear Gal- i-|lee— For~that *|life giv- ing touch they are|
 [DF]2 [DF]>[DF] [Fd]2 ([Ec]>[DB]) | [CA]2 [CE]>[EA] [EB]2 [EA]>[EG] | [EA]6 || %9
w: Sav- ior they wait— For~the *|touch of His hand th- ey|sigh.|
w: break- ing with grief, Still *|call- ing for reap- ers to|go.|
w: cold win- ter’s blast, And *|die with- out com- fort or|rest.|
w: call- ing a- far, They~are *|call- ing to you and to|me.|
"^Refrain" [CE]>[CE] | [Ec]2 z4 [DB]>[DE] | A6 [CE]>[CE] | [Ed]2 z4 [Ec]>[EB] | c6 (cd) | %14
w: |||||
w: For the|touch of His|hand, For the|touch of His|hand, They *|
w: |||||
w: |||||
 [Ee]2 [Ed]>[Ec] [Ec]2 [DB]>[CA] | (FG) [DA]2 [CE]2 E>E | [Ed]2 [Ec]>[EB] [Ec]2 [DB]2 | [CA]6 |] %18
w: ||||
w: wait in the isles of the|roll- * ing sea, For the|touch of His ten- der|hand.|
w: ||||
w: ||||
V:2
 x2 | x8 | x8 | x8 | x8 | x8 | x8 | x8 | x6 || x2 | x8 | (C2 D2 C2) x2 | x8 | (E2 CF E2) E2 | x8 | %15
 D2 x3 E>E x | x8 | x6 |] %18
V:3
 ([A,,A,]>[A,,A,]) | [A,,A,]2 [A,,E,]>[A,,E,] [A,,A,]2 [A,,A,]>[C,A,] | %2
w: ~ *|~ ~ ~ ~ ~ ~|
 [D,A,]2 [D,A,]>[D,A,] [A,,A,]2 [A,,A,]2 | [E,G,]2 E,>E, [E,G,]2 [E,G,]>[E,G,] | %4
w: ~ ~ ~ ~ ~|~ ~ ~ ~ ~ ~|
 [A,,A,]6 ([A,,A,][A,,A,]) | [A,,A,]2 [A,,A,]>[A,,A,] [A,,A,]2 [A,,A,]>[A,,A,] | %6
w: ~ ~ *|~ ~ ~ ~ ~ ~|
 [D,A,]2 [D,A,]>[D,A,] [D,A,]2 ([D,A,]>[D,A,]) | [E,A,]2 [E,A,]>[E,C] [E,D]2 [E,C]>[E,B,] | %8
w: ~ ~ ~ ~ ~ *|~ ~ ~ ~ ~ ~|
 [A,,C]6 || z2 | z2 [A,,A,]>[C,A,] [E,A,]2 [E,G,]>[E,G,] | [A,,A,]2 [A,,F,]2 [A,,E,]2 z2 | %12
w: ~||For the touch of His|ten- der hand,|
 z2 [E,G,]>[G,B,] [E,G,]2 [E,A,]>[E,G,] | [A,,A,]2 [A,,A,]2 [A,,A,]2 (A,B,) | %14
w: For the touch of His|ten- der hand, * *|
 [A,C]2 [A,B,]>A, A,2 [A,,A,]>[A,,A,] | A,2 [F,A,]2 A,2 [C,A,]>[C,A,] | %16
w: ||
 [E,B,]2 [E,A,]>[E,G,] [E,A,]2 [E,G,]2 | [A,,A,]6 |] %18
w: ||
V:4
 x2 | x8 | x8 | x2 E,>E, x4 | x8 | x8 | x8 | x8 | x6 || x2 | x8 | x8 | x8 | x6 A,2 | %14
 x7/2 A,/ A,2 x2 | (D,E,) x A,2 x3 | x8 | x6 |] %18

